svg/media/volume_mute_line.svg

<?xml version="1.0" encoding="UTF-8"?>
<svg width="24px" height="24px" viewBox="0 0 24 24" version="1.1" xmlns="http://www.w3.org/2000/svg" xmlns:xlink="http://www.w3.org/1999/xlink">
    <title>volume_mute_line</title>
    <g id="页面-1" stroke="none" stroke-width="1" fill="none" fill-rule="evenodd">
        <g id="Media" transform="translate(-624.000000, -96.000000)">
            <g id="volume_mute_line" transform="translate(624.000000, 96.000000)">
                 <path d="M24,0 L24,24 L0,24 L0,0 L24,0 Z M12.5934901,23.257841 L12.5819402,23.2595131 L12.5108777,23.2950439 L12.4918791,23.2987469 L12.4918791,23.2987469 L12.4767152,23.2950439 L12.4056548,23.2595131 C12.3958229,23.2563662 12.3870493,23.2590235 12.3821421,23.2649074 L12.3780323,23.275831 L12.360941,23.7031097 L12.3658947,23.7234994 L12.3769048,23.7357139 L12.4804777,23.8096931 L12.4953491,23.8136134 L12.4953491,23.8136134 L12.5071152,23.8096931 L12.6106902,23.7357139 L12.6232938,23.7196733 L12.6232938,23.7196733 L12.6266527,23.7031097 L12.609561,23.275831 C12.6075724,23.2657013 12.6010112,23.2592993 12.5934901,23.257841 L12.5934901,23.257841 Z M12.8583906,23.1452862 L12.8445485,23.1473072 L12.6598443,23.2396597 L12.6498822,23.2499052 L12.6498822,23.2499052 L12.6471943,23.2611114 L12.6650943,23.6906389 L12.6699349,23.7034178 L12.6699349,23.7034178 L12.678386,23.7104931 L12.8793402,23.8032389 C12.8914285,23.8068999 12.9022333,23.8029875 12.9078286,23.7952264 L12.9118235,23.7811639 L12.8776777,23.1665331 C12.8752882,23.1545897 12.8674102,23.1470016 12.8583906,23.1452862 L12.8583906,23.1452862 Z M12.1430473,23.1473072 C12.1332178,23.1423925 12.1221763,23.1452606 12.1156365,23.1525954 L12.1099173,23.1665331 L12.0757714,23.7811639 C12.0751323,23.7926639 12.0828099,23.8018602 12.0926481,23.8045676 L12.108256,23.8032389 L12.3092106,23.7104931 L12.3186497,23.7024347 L12.3186497,23.7024347 L12.3225043,23.6906389 L12.340401,23.2611114 L12.337245,23.2485176 L12.337245,23.2485176 L12.3277531,23.2396597 L12.1430473,23.1473072 Z" id="MingCute" fill-rule="nonzero"></path>
                <path d="M15,4.19432 L15,19.8057 C15,20.7004 13.9887,21.2208 13.2606,20.7008 L6.67953,16 L4,16 C2.89543,16 2,15.1046 2,14 L2,10 C2,8.89543 2.89543,8 4,8 L6.67953,8 L13.2606,3.29921 C13.9887,2.77917 15,3.29961 15,4.19432 Z M13,5.94319 L7.84201,9.62746 C7.50281,9.86975 7.09638,10 6.67953,10 L4,10 L4,14 L6.67953,14 C7.09638,14 7.50281,14.1302 7.84201,14.3725 L13,18.0568 L13,5.94319 Z M16.1715,9.17163 C16.5319615,8.81115 17.0992207,8.78342077 17.4914973,9.08844231 L17.5857,9.17163 L18.9999,10.5858 L20.4141,9.17164 C20.8046,8.78112 21.4378,8.78112 21.8283,9.17164 C22.1888538,9.53212923 22.2165888,10.0993309 21.9115047,10.4916771 L21.8283,10.5859 L20.4141,12.0001 L21.8283,13.4143 C22.2189,13.8048 22.2189,14.438 21.8283,14.8285 C21.4678385,15.1889615 20.9005793,15.2166893 20.5083027,14.9116834 L20.4141,14.8285 L18.9999,13.4143 L17.5857,14.8285 C17.1952,15.219 16.562,15.219 16.1715,14.8285 C15.8110385,14.4680385 15.7833107,13.9007793 16.0883166,13.5085027 L16.1715,13.4143 L17.5857,12.0001 L16.1715,10.5858 C15.781,10.1953 15.781,9.56215 16.1715,9.17163 Z" id="形状" fill="#09244B"></path>
            </g>
        </g>
    </g>
</svg>

<svg xmlns="http://www.w3.org/2000/svg" width="24" height="24"><g fill="none" fill-rule="evenodd"><path d="M24 0v24H0V0h24ZM12.593 23.258l-.011.002-.071.035-.02.004-.014-.004-.071-.035c-.01-.004-.019-.001-.024.005l-.004.01-.017.428.005.02.01.013.104.074.015.004.012-.004.104-.074.012-.016.004-.017-.017-.427c-.002-.01-.009-.017-.017-.018Zm.265-.113-.013.002-.185.093-.01.01-.003.011.018.43.005.012.008.007.201.093c.012.004.023 0 .029-.008l.004-.014-.034-.614c-.003-.012-.01-.02-.02-.022Zm-.715.002a.023.023 0 0 0-.027.006l-.006.014-.034.614c0 .012.007.02.017.024l.015-.002.201-.093.01-.008.004-.011.017-.43-.003-.012-.01-.01-.184-.092Z"/><path fill="#09244B" d="M15 4.194v15.612a1.1 1.1 0 0 1-1.74.895L6.68 16H4a2 2 0 0 1-2-2v-4a2 2 0 0 1 2-2h2.68l6.58-4.7a1.1 1.1 0 0 1 1.74.894Zm-2 1.75L7.842 9.626A2 2 0 0 1 6.68 10H4v4h2.68a2 2 0 0 1 1.162.373L13 18.057V5.943Zm3.172 3.228a1 1 0 0 1 1.32-.084l.094.084L19 10.586l1.414-1.414a1 1 0 0 1 1.498 1.32l-.084.094L20.414 12l1.414 1.414a1 1 0 0 1-1.32 1.498l-.094-.084L19 13.415l-1.414 1.415a1 1 0 0 1-1.498-1.32l.084-.095L17.586 12l-1.414-1.414a1 1 0 0 1 0-1.414Z"/></g></svg>
